X: 12592
T: Farewell To The Dene
R: barndance
M: 4/4
K: Dmajor
|:A>G|F<Ad>e f2 A>d|f<ag>e B2 e>d|c>de>f g>eB>c|d>ef<d A2 A>G|
F<Ad>e f2 A>d|f<ag>e B2 e>d|c>de>f g<ea>g|f<ad>e d2:|
|:f>g|a>Aa>g f2 A>d|f>gf>e d4|G>AB<d A>df<a|A>dg>f e2 f>g|
a>Aa>g f2 A>d|f>gf>e d4|G>AB>d c<Aa>g|f<ad>e d2:|

